X:1
T:Title
%%score { ( 1 3 4 ) | ( 2 5 ) }
L:1/8
M:4/4
K:Eb
V:1 treble nm="Grand Piano"
V:3 treble 
V:4 treble 
V:2 bass 
V:5 bass 
V:1
 z4 z[Q:1/4=96] EFG | B6[K:bass][K:treble] z2 | G6[K:bass][K:treble] z2 | _d6 z2 |[M:5/8] c-c- c3 | %5
[M:3/8] EFG |[M:4/4] B6[K:bass][K:treble] z2 | G6 z2 | c6 z2 |[M:11/16] E/-E/-E/-E/-E/-E/-E/-E-<E | %10
[M:3/8] z3 |[M:4/4] [F_d]6 z2 | [Ec]6 z2 | [FA]6 z2 | [Ec]6 z2 | [_Ge]6 z2 | [F_d]6 z2 | %17
 cEDE c2 B2 |[M:5/8] [CA]-[CA]- [CA]3 |[M:3/8] EFG |[M:4/4] B6 z2 | G6 z2 | _d6 z2 | c6 z2 | %24
 e6 z2 | _d6 z2 | cEDE c2 B2 |[M:15/16] A3/2-A3/2- A3 z3/2 |] %28
V:2
 z8 | z [E,A,][E,A,][E,A,] z [E,A,C][E,A,C][E,A,C] | z [G,B,][G,B,][G,B,] z [G,B,][G,B,E][G,B,E] | %3
 z [G,B,E][G,B,E][G,B,E] z[K:treble] [G,B,EG][G,B,EG][G,B,EG] | %4
[M:5/8][K:bass] z [E,A,][E,A,] [E,A,][E,A,] |[M:3/8] z3 | %6
[M:4/4] z [E,A,][E,A,][E,A,] z [E,A,C][E,A,C][E,A,C] | %7
 z [G,B,][G,B,][G,B,] z [G,B,E][G,B,E][G,B,E] | z [F,A,D][F,A,D][F,A,D] z [F,A,DF][F,A,DF][F,A,D] | %9
[M:11/16] z G,G,A,B,3/2 |[M:3/8] EDE |[M:4/4] E,,[E,G,][E,G,][E,G,] [E,G,]F[E,G,_DE]=D | %12
 A,,[E,A,][E,A,][E,A,] [E,A,]E[E,A,CE]E | _D,,[F,A,][F,A,][F,A,] [F,A,]F[=E,A,_D=E]E | %14
 A,,[E,A,][E,A,][E,A,] [E,A,]EDE | C,[E,A,][E,A,][E,A,] [E,A,][K:treble]_G[E,A,C]G | %16
 _D,,[F,A,][F,A,][F,A,] [F,A,]F[=E,A,_D=E]E | [E,A,E][F,A,C][F,A,=B,][E,A,C] [E,A,E]2 [E,G,_D]2 | %18
[M:5/8] [A,,A,]-[A,,A,]- [A,,A,]3 |[M:3/8] z3 |[M:4/4] z [A,,E,][A,,E,][A,,E,] .[A,,E,]2 z2 | %21
 z [B,,E,][B,,E,][B,,E,] .[B,,E,]2 z2 | z [E,G,][E,G,][E,G,] .[E,G,]2 z2 | %23
 z [A,,A,][A,,A,][A,,A,] [A,,A,]E[K:treble]DE | _G6[K:bass][K:treble] z2 | F6[K:bass] z2 | %26
 [E,A,E][E,A,C][F,A,=B,][E,A,C] [E,A,E]2 [E,G,_D]2 |[M:15/16] z E,/-E,/F, F,3 E,3/2 |] %28
V:3
 x8 | z CCC[K:bass] z[K:treble] AGF | z EEE[K:bass] z E[K:treble]FG | z GGG z _dc=B | %4
[M:5/8] z EE EE |[M:3/8] x3 |[M:4/4] z CCC[K:bass] z[K:treble] AGF | z EEE z GAB | z FFF z BAF | %9
[M:11/16] z B,B,C_D3/2 |[M:3/8] x3 |[M:4/4] z _DDD D_dc=B | z CCC CccB | z _DDD DABA | %14
 z CCC Cc=Bc | z CCC Cc[_GB]A | z _DDD DAAB | x8 |[M:5/8] x5 |[M:3/8] x3 |[M:4/4] z CCC CAGF | %21
 z _DDD DEFG | z EEE E_dc=B | z EEE Ec=Bc | z A,A,A, A,cBA | z A,A,A, A,[FA][=EA][EB] | x8 | %27
[M:15/16] [A,C]C/-C/_D D3 C3/2 |] %28
V:4
 x8 | z4[K:bass] C,4[K:treble] | z4[K:bass] E,4[K:treble] | z4 E,4 |[M:5/8] x5 |[M:3/8] x3 | %6
[M:4/4] z4[K:bass] C,4[K:treble] | z4 E,4 | z4 D,4 |[M:11/16] x11/2 |[M:3/8] x3 |[M:4/4] x8 | x8 | %13
 x8 | x8 | x8 | x8 | x8 |[M:5/8] x5 |[M:3/8] x3 |[M:4/4] x8 | x8 | x8 | x8 | x8 | x8 | x8 | %27
[M:15/16] x15/2 |] %28
V:5
 x8 | A,,4 z4 | B,,4 z4 | B,,4 z4[K:treble] |[M:5/8][K:bass] A,,-A,,- A,,3 |[M:3/8] x3 | %6
[M:4/4] A,,4 z4 | B,,4 z4 | B,,4 z4 |[M:11/16] E,/-E,/-E,/-E,/-E,/-E,/-E,/-E,-<E, |[M:3/8] x3 | %11
[M:4/4] x8 | x8 | x8 | x8 | x5[K:treble] x3 | x8 | x8 |[M:5/8] x5 |[M:3/8] x3 |[M:4/4] x8 | x8 | %22
 x8 | x6[K:treble] x2 | z[K:bass] C,C,C, C,[K:treble]_GGG | z[K:bass] _D,D,D, D,[D,_D][D,D][D,A,] | %26
 x8 |[M:15/16] A,,3/2-A,,3/2- A,,3 z3/2 |] %28

